resources/haticons/SVG/format_align_right.svg

<!-- Generated by IcoMoon.io -->
<svg version="1.1" xmlns="http://www.w3.org/2000/svg" width="24" height="24" viewBox="0 0 24 24">
<title>format_align_right</title>
<path d="M3 3h18v2.016h-18v-2.016zM9 9v-2.016h12v2.016h-12zM3 12.984v-1.969h18v1.969h-18zM9 17.016v-2.016h12v2.016h-12zM3 21v-2.016h18v2.016h-18z"></path>
</svg>

<svg xmlns="http://www.w3.org/2000/svg" width="24" height="24"><path d="M3 3h18v2.016H3V3zm6 6V6.984h12V9H9zm-6 3.984v-1.969h18v1.969H3zm6 4.032V15h12v2.016H9zM3 21v-2.016h18V21H3z"/></svg>
